build/img/icon-odnakl.svg

<svg height="26" viewBox="0 0 27 26" width="27" xmlns="http://www.w3.org/2000/svg"><path d="m13.8512 10.957c1.0156 0 1.8056-.8357 1.7868-1.7457.0188-.91-.7523-1.76428-1.768-1.76428-.978 0-1.7867.78-1.7867 1.74571 0 .96567.7899 1.76427 1.7679 1.76427z"/><path d="m13.701.00012207c-7.25987 0-13.1656 5.83139793-13.1656 12.99997793 0 7.1871 5.90573 12.9999 13.1656 12.9999 7.2787 0 13.1657-5.8314 13.1657-12.9999.0188-7.16858-5.887-12.99997793-13.1657-12.99997793zm.1881 4.92140793c2.3698 0 4.3259 1.93142 4.3071 4.28998 0 2.37709-1.9749 4.28999-4.3823 4.25279-2.3698-.0371-4.26945-1.9499-4.26945-4.27137 0-2.35856 1.93725-4.2714 4.34465-4.2714zm4.8337 10.02847c0 .0372-.0188.0558-.0188.0929-.0565.3714-.2445.6686-.5643.8729-.2069.13-.4326.26-.6583.3714-.5642.2786-1.1661.5014-1.7867.65-.0752.0186-.0752.0186-.0188.0743.3385.3343.6959.6871 1.0344 1.0214.4326.4271.884.8728 1.3166 1.3.6206.6128.4514 1.6343-.3386 2.0057-.1316.0743-.2821.0928-.4325.13-.0753 0-.1693 0-.2446 0-.0188 0-.0376 0-.0376-.0186-.3009-.0371-.5454-.1857-.7711-.39-.7523-.7428-1.5235-1.5043-2.2758-2.2471-.0564-.0557-.0564-.0557-.1128 0-.7712.7614-1.5235 1.5043-2.2946 2.2657-.1317.13-.2633.2228-.4326.2971-.1128.0557-.2445.0743-.3573.0929-.0753 0-.1505 0-.2445 0-.0377 0-.0565-.0186-.0941-.0186-.5078-.0928-.84635-.3714-.99681-.8543-.15047-.4828-.03762-.91.31974-1.2628.31977-.3157.62067-.6129.94037-.9286.4702-.4643.9404-.9286 1.3918-1.3743.0564-.0557.0564-.0557-.0188-.0742-.0188 0-.0564-.0186-.0752-.0186-.8464-.2043-1.6175-.5386-2.35102-.9843-.43259-.2786-.63948-.6871-.58305-1.1886.09404-.9285 1.14727-1.43 1.93727-.9285.1504.0928.2821.1671.4513.2414.8652.4271 1.7868.6129 2.746.5571.4702-.0185.9404-.1114 1.4106-.26.4514-.1485.8464-.3528 1.2602-.5757.6771-.39 1.561-.0743 1.8243.65.0377.1115.0565.2043.0753.3157z"/></svg>

<svg width="27" height="26" viewBox="0 0 27 26" xmlns="http://www.w3.org/2000/svg">
<path d="M13.8512 10.957C14.8668 10.957 15.6568 10.1213 15.638 9.2113C15.6568 8.3013 14.8857 7.44702 13.87 7.44702C12.892 7.44702 12.0833 8.22702 12.0833 9.19273C12.0833 10.1584 12.8732 10.957 13.8512 10.957Z"/>
<path d="M13.701 0.00012207C6.44113 0.00012207 0.5354 5.83152 0.5354 13.0001C0.5354 20.1872 6.44113 26 13.701 26C20.9797 26 26.8667 20.1686 26.8667 13.0001C26.8855 5.83152 20.9797 0.00012207 13.701 0.00012207ZM13.8891 4.92153C16.2589 4.92153 18.215 6.85295 18.1962 9.21151C18.1962 11.5886 16.2213 13.5015 13.8139 13.4643C11.4441 13.4272 9.54445 11.5144 9.54445 9.19293C9.54445 6.83437 11.4817 4.92153 13.8891 4.92153ZM18.7228 14.95C18.7228 14.9872 18.704 15.0058 18.704 15.0429C18.6475 15.4143 18.4595 15.7115 18.1397 15.9158C17.9328 16.0458 17.7071 16.1758 17.4814 16.2872C16.9172 16.5658 16.3153 16.7886 15.6947 16.9372C15.6195 16.9558 15.6195 16.9558 15.6759 17.0115C16.0144 17.3458 16.3718 17.6986 16.7103 18.0329C17.1429 18.46 17.5943 18.9057 18.0269 19.3329C18.6475 19.9457 18.4783 20.9672 17.6883 21.3386C17.5567 21.4129 17.4062 21.4314 17.2558 21.4686C17.1805 21.4686 17.0865 21.4686 17.0112 21.4686C16.9924 21.4686 16.9736 21.4686 16.9736 21.45C16.6727 21.4129 16.4282 21.2643 16.2025 21.06C15.4502 20.3172 14.679 19.5557 13.9267 18.8129C13.8703 18.7572 13.8703 18.7572 13.8139 18.8129C13.0427 19.5743 12.2904 20.3172 11.5193 21.0786C11.3876 21.2086 11.256 21.3014 11.0867 21.3757C10.9739 21.4314 10.8422 21.45 10.7294 21.4686C10.6541 21.4686 10.5789 21.4686 10.4849 21.4686C10.4472 21.4686 10.4284 21.45 10.3908 21.45C9.883 21.3572 9.54445 21.0786 9.39399 20.5957C9.24352 20.1129 9.35637 19.6857 9.71373 19.3329C10.0335 19.0172 10.3344 18.72 10.6541 18.4043C11.1243 17.94 11.5945 17.4757 12.0459 17.03C12.1023 16.9743 12.1023 16.9743 12.0271 16.9558C12.0083 16.9558 11.9707 16.9372 11.9519 16.9372C11.1055 16.7329 10.3344 16.3986 9.60088 15.9529C9.16829 15.6743 8.9614 15.2658 9.01783 14.7643C9.11187 13.8358 10.1651 13.3343 10.9551 13.8358C11.1055 13.9286 11.2372 14.0029 11.4064 14.0772C12.2716 14.5043 13.1932 14.6901 14.1524 14.6343C14.6226 14.6158 15.0928 14.5229 15.563 14.3743C16.0144 14.2258 16.4094 14.0215 16.8232 13.7986C17.5003 13.4086 18.3842 13.7243 18.6475 14.4486C18.6852 14.5601 18.704 14.6529 18.7228 14.7643C18.7228 14.8201 18.7228 14.8758 18.7228 14.95Z"/>
</svg>
